X:076
T:Henry’s Cottage Maid TS.076
M:6/8
L:1/8
Q:3/8=120
S:Thomas Sands’ MS,1810,Lincolnshire
R:song
C:Pleyel
O:England;Lincolnshire
Z:vmp.Ruairidh Greig, 2011
K:G
B3BcB|d3B2B|B3BcA|G3D3|
e2f gfe|d3B2G|A2B cBd|B3A3|
B3BcA|d3B2B|B3BcA|G3D3|
e2f gfe|d3B2G|A2B cBA|G3G2d|
A2B cBA|B3d2B|A2B cBA|G3G2d|
A2B cBA|B3dBG|FAd GFE|D3D2z|
B3BcA|d3B2B|B3BcA|G3D3|
e2f gfe|d3B2G|A2B cBA|G3G2″sy”g|
f2g agf|g2bg2b|f2g agf|g2bg2b|gBA GGG|G3 G2|]

